packages/core/src/svgs/tokens/mono/LYRA.svg

<svg width="24" height="24" viewBox="0 0 24 24" fill="none" xmlns="http://www.w3.org/2000/svg">
<path d="M16.3156 9.75414L12.8337 13.2485H4.01342C3.37579 13.2485 3.05699 12.5172 3.48832 12.0796L13.3462 2.15907C13.4084 2.0976 13.4842 2.05182 13.5676 2.02552C13.6509 1.99921 13.7393 1.99314 13.8255 2.0078C13.9117 2.02247 13.9931 2.05745 14.063 2.10984C14.133 2.16223 14.1894 2.23054 14.2277 2.3091L16.6844 7.7788C16.8314 8.10643 16.8748 8.47115 16.8089 8.82417C16.7431 9.17718 16.5709 9.50164 16.3156 9.75414Z" fill="white"/>
<path d="M2.00024 13.8735C2.20027 14.1424 2.91915 14.4985 4.16311 14.4985H17.8529C18.6469 14.4985 19.3658 14.9612 19.6784 15.6863L21.9475 21.0498C21.9907 21.1544 22.0074 21.268 21.9962 21.3807C21.9848 21.4933 21.946 21.6014 21.8829 21.6955C21.8199 21.7894 21.7345 21.8664 21.6346 21.9195C21.5346 21.9726 21.423 22.0002 21.3098 21.9999H7.02611C6.58957 22.0011 6.16212 21.8752 5.79585 21.6376C5.42957 21.4001 5.14029 21.0612 4.96325 20.6622L2.00024 13.8735Z" fill="white"/>
</svg>

<svg xmlns="http://www.w3.org/2000/svg" width="24" height="24" fill="none" viewBox="0 0 24 24">
    <path fill="#fff" d="m16.316 9.754-3.482 3.495h-8.82c-.638 0-.957-.732-.526-1.17l9.858-9.92a.55.55 0 0 1 .882.15l2.456 5.47a1.76 1.76 0 0 1-.368 1.975M2 13.874c.2.268.92.624 2.163.624h13.69a1.98 1.98 0 0 1 1.825 1.188l2.27 5.364a.688.688 0 0 1-.638.95H7.026a2.25 2.25 0 0 1-2.063-1.338z"/>
</svg>
